X:705
T:Moving Cloud
C:Joe Buchanan's Scottish Tome - Page 226.0
I:226 0
Z:Carl Allison
R:Reel
L:1/8
M:4/4
K:G
(GE) | "G"(DG) ((3GFG) BGFG | "G"DGFG BGFB | "C"c2 (ec) "G"BDGA | "Am"ACEA "D7"GFEF |
"G"(DG) ((3GFG) BGFG | "G"DGFG BGFG | "C"cEGc "G"BDGB | ADFA "G"G2 :|
(Bc) | "G"d2 (gd) adgd | "G"d2 (gd) adgd | "Am"e2 (ae) "G"beae | e2 (ae) beae |
"G"d2 (gd) adgd | "G"d2 (gd) adgd | "C"cEGc "G"BDGB | "D7"ADFA "G"G2 :|
"G"Bd^cd ed^cd | "G"gd^cd ed^cd | "Am"ce^de fe^de | "Am"ae^de "D7"fe=dc |
"G"Bd^cd ed^cd | "G"gd^cd ed^cd | "C"cEGc "G"BDGB | "D7"ADFA "G"G2 :|
"G"((3DDD) (BD) ADGD | "G"((3DDD) (BD) ADG | "Am"((3EEE) (cE) BA | ((3"Am"EEE) (cE) BEAE |
"G"((3DDD) (BD) ADGD | "G"((3DDD) (BD) ADGD | "C"cEGc "G"BDGB | "D7"ADFA "G"G2 :|
(Bc) | "G"d2 (bd) adgd | "G"d2 (bd) adgd | "Am"e2 (c'e) beae | "Am"e2 (c'e) beae |
"G"d2 (bd) adgd | "G"d2 (bd) adgd | "C"cEGc "G"BDGB | "D7"ADFA "G"G2 :|

